X:1
T:James Gibb editions
T:Tanto va fatto - Antonelli da Rimini
%%score [ 1 2 3 ]
L:1/8
Q:1/4=108
M:2/2
K:C
V:1 treble-8 nm="Tenor I" snm="T I"
V:2 treble-8 nm="Tenor II" snm="T II"
V:3 bass nm="Bass" snm="B"
V:1
"^Tanto va fatto""^Cornelio Antonelli da Rimini\n(C16th)" e8 | d2 c2 B4- | B2 c2 d2 d2 | d2 d2 c4 | %4
w: Tan-|to va fatt'|* ll ciel cor-|te- sa~~e bel-|
w: ||||
w: Tan-|to va fatt'|* ll ciel leg-|gia- dra~~e pi-|
 B2 A2 A2 A2 |[M:2/2][K:treble-8] A2 A2 (A4 | B4) ^c4 | z2 G2 G2 G2 | A4 B4- | B2 d2 d3 c | %10
w: la E tan- to|cían- cio- sel\-|* la|Che per voi|dol- ce|* e ca- ro|
w: ||||||
w: a O dol- ce|vi- ta mi\-|* a|Chi'o * non|cu- ro|* sof- frir mil-|
 B2 B2 A4 | A4 | dd d2 e2 e2 | cc d2 d2 d2 | B2 c2 A4 | B8 :| %16
w: mio te- so-|ro|||||
w: ||Mil- le volt' il di|nasc' e mil- le e|mil- le mo-|ro.|
w: le fe- ri-|te|||||
V:2
 c8 | B2 A2 ^G4- | G2 A2 B2 B2 | B2 B2 A4 | G2 ^F2 F2 F2 |[M:2/2][K:treble-8] ^F2 F2 (F4 | %6
w: Tan-|to va fatt'|* ll ciel cor-|te- sa~~e bel-|la E tan- to|cían- cio- sel\-|
w: ||||||
w: Tan-|to va fatt'|* ll ciel leg-|gia- dra~~e pi-|a O dol- ce|vi- ta mi\-|
 ^G4) A4 | z2 E2 E2 E2 | ^F4 G4- | G2 B2 B3 A | G2 G2 ^F4 | ^F4 | BB B2 c2 c2 | AA B2 B2 B2 | %14
w: * la|Che per voi|dol- ce|* e ca- ro|mio te- so-|ro|||
w: ||||||Mil- le volt' il di|nasc' e mil- le e|
w: * a|Chi'o * non|cu- ro|* sof- frir mil-|le fe- ri-|te|||
 G2 G2 (G2 ^F2) | G8 :| %16
w: ||
w: mil- le mo\- *|ro.|
w: ||
V:3
 C,8 | G,2 F,2 E,4- | E,2 F,2 G,2 G,2 | G,2 G,2 F,4 | E,2 D,2 D,2 D,2 |[M:2/2] D,2 D,2 (D,4 | %6
w: Tan-|to va fatt'|* ll ciel cor-|te- sa~~e bel-|la E tan- to|cían- cio- sel\-|
w: ||||||
w: Tan-|to va fatt'|* ll ciel leg-|gia- dra~~e pi-|a O dol- ce|vi- ta mi\-|
 E,4) A,,4 | z2 C,2 C,2 C,2 | D,4 G,,4- | G,,2 G,2 G,3 F, | E,2 E,2 D,4 | D,4 | G,G, G,2 C,2 C,2 | %13
w: * la|Che per voi|dol- ce|* e ca- ro|mio te- so-|ro||
w: ||||||Mil- le volt' il di|
w: * a|Chi'o * non|cu- ro|* sof- frir mil-|le fe- ri-|te||
 F,F, G,2 G,2 G,2 | E,2 C,2 D,4 | G,,8 :| %16
w: |||
w: nasc' e mil- le e|mil- le mo-|ro.|
w: |||

